X:154
M:4/4
L:1/4
K:D
A | A A A =c | B A !fermata!G A | F D F ^G | (A B) !fermata!A A | A A A =c | B A !fermata!G A | F D F ^G | (A B) !fermata!A A | d c B c | d B !fermata!A A | d A B F | A G !fermata!F !sintro!F | E G F E | (D E) !fermata!D !eintro!|]
